flaticon/coffee-shop/food.svg

<svg xmlns="http://www.w3.org/2000/svg" width="32" height="32" viewBox="0 0 24 24">
    <path d="M 10.820312 13.601562 C 8.941406 13.601562 6.820312 11.679688 6.820312 10 L 6.820312 8.398438 C 6.820312 8.160156 6.660156 8 6.417969 8 C 6.179688 8 6.019531 8.160156 6.019531 8.398438 L 6.019531 10 C 6.019531 12.121094 8.5 14.398438 10.820312 14.398438 C 11.058594 14.398438 11.21875 14.238281 11.21875 14 C 11.21875 13.761719 11.058594 13.601562 10.820312 13.601562 Z M 10.820312 13.601562"/>
    <path d="M 20.78125 11 L 20.78125 7 C 20.78125 5.558594 19.621094 4.398438 18.179688 4.398438 C 17.84375 4.398438 17.523438 4.460938 17.21875 4.585938 L 17.21875 3.839844 C 17.929688 3.535156 18.417969 2.835938 18.417969 2 C 18.417969 0.878906 17.539062 0 16.417969 0 L 5.21875 0 C 4.097656 0 3.21875 0.878906 3.21875 2 C 3.21875 2.835938 3.707031 3.535156 4.417969 3.839844 L 4.417969 10 C 4.417969 12.585938 6.890625 15.230469 9.621094 15.859375 L 9.621094 17.601562 C 9.140625 18 8.820312 18.558594 8.820312 19.199219 C 8.820312 19.839844 9.140625 20.441406 9.621094 20.800781 L 9.621094 21.679688 L 4.660156 22.800781 C 4.339844 22.921875 4.179688 23.199219 4.21875 23.480469 C 4.257812 23.800781 4.5 24 4.820312 24 L 16.820312 24 C 17.140625 24 17.378906 23.800781 17.417969 23.480469 C 17.460938 23.160156 17.300781 22.878906 16.980469 22.800781 L 12.019531 21.679688 L 12.019531 20.800781 C 12.5 20.398438 12.820312 19.839844 12.820312 19.199219 C 12.820312 18.558594 12.5 17.960938 12.019531 17.601562 L 12.019531 15.859375 C 13.746094 15.460938 15.371094 14.257812 16.328125 12.769531 C 16.816406 13.292969 17.480469 13.601562 18.21875 13.601562 C 19.660156 13.601562 20.820312 12.441406 20.78125 11 Z M 4.019531 2 C 4.019531 1.320312 4.539062 0.800781 5.21875 0.800781 L 16.417969 0.800781 C 17.097656 0.800781 17.621094 1.320312 17.621094 2 C 17.621094 2.679688 17.097656 3.199219 16.417969 3.199219 L 5.21875 3.199219 C 4.539062 3.199219 4.019531 2.679688 4.019531 2 Z M 11.21875 16 L 11.21875 17.800781 C 11.21875 17.960938 11.300781 18.078125 11.417969 18.160156 C 11.78125 18.398438 12.019531 18.761719 12.019531 19.199219 C 12.019531 19.640625 11.78125 20 11.417969 20.199219 C 11.300781 20.28125 11.21875 20.398438 11.21875 20.558594 L 11.21875 22 C 11.21875 22.199219 11.339844 22.359375 11.539062 22.398438 L 15.058594 23.199219 L 6.578125 23.199219 L 10.097656 22.398438 C 10.300781 22.359375 10.417969 22.199219 10.417969 22 L 10.417969 20.601562 C 10.417969 20.441406 10.339844 20.320312 10.21875 20.238281 C 9.859375 20 9.621094 19.640625 9.621094 19.199219 C 9.621094 18.761719 9.859375 18.398438 10.21875 18.199219 C 10.339844 18.121094 10.417969 18 10.417969 17.839844 L 10.417969 16 Z M 10.820312 15.199219 C 8.058594 15.199219 5.21875 12.558594 5.21875 10 L 5.21875 4 L 16.417969 4 L 16.417969 5.089844 L 16.378906 5.121094 L 16.378906 9.960938 C 16.378906 10.558594 16.21875 11.199219 15.898438 11.839844 L 15.820312 12.039062 L 15.835938 12.070312 C 14.867188 13.808594 12.820312 15.199219 10.820312 15.199219 Z M 20.019531 11 C 20.019531 12 19.21875 12.800781 18.21875 12.800781 C 17.621094 12.800781 17.058594 12.519531 16.738281 12.039062 C 17.039062 11.40625 17.195312 10.773438 17.21875 10.140625 C 17.21875 10.140625 17.21875 10.140625 17.21875 10.136719 C 17.21875 10.09375 17.21875 10.046875 17.21875 10 L 17.21875 5.519531 C 17.5 5.320312 17.859375 5.199219 18.21875 5.199219 C 19.21875 5.199219 20.019531 6 20.019531 7 Z M 20.019531 11"/>
</svg>

<svg xmlns="http://www.w3.org/2000/svg" width="32" height="32" viewBox="0 0 24 24">
    <path d="M10.82 13.602c-1.879 0-4-1.922-4-3.602V8.398C6.82 8.16 6.66 8 6.418 8c-.238 0-.398.16-.398.398V10c0 2.121 2.48 4.398 4.8 4.398.239 0 .399-.16.399-.398 0-.238-.16-.398-.399-.398zm0 0"/>
    <path d="M20.781 11V7a2.596 2.596 0 0 0-3.562-2.414V3.84A1.98 1.98 0 0 0 18.418 2c0-1.121-.879-2-2-2h-11.2c-1.12 0-2 .879-2 2a1.98 1.98 0 0 0 1.2 1.84V10c0 2.586 2.473 5.23 5.203 5.86v1.742c-.48.398-.8.957-.8 1.597s.32 1.242.8 1.602v.879l-4.96 1.12c-.321.122-.481.4-.442.68.039.32.281.52.601.52h12c.32 0 .559-.2.598-.52.043-.32-.117-.601-.438-.68l-4.96-1.12v-.88c.48-.402.8-.96.8-1.6 0-.641-.32-1.24-.8-1.598v-1.743c1.726-.398 3.351-1.601 4.308-3.09a2.562 2.562 0 0 0 1.89.833c1.442 0 2.602-1.16 2.563-2.602zM4.02 2c0-.68.52-1.2 1.199-1.2h11.199c.68 0 1.203.52 1.203 1.2 0 .68-.523 1.2-1.203 1.2h-11.2C4.54 3.2 4.02 2.68 4.02 2zm7.199 14v1.8c0 .16.082.278.199.36.363.238.602.602.602 1.04 0 .44-.239.8-.602 1-.117.081-.2.198-.2.359V22c0 .2.122.36.321.398l3.52.801h-8.48l3.519-.8c.203-.04.32-.2.32-.399v-1.398a.425.425 0 0 0-.2-.364c-.359-.238-.597-.597-.597-1.039 0-.437.238-.8.598-1 .12-.078.199-.199.199-.36V16zm-.399-.8C8.06 15.2 5.22 12.558 5.22 10V4h11.199v1.09l-.04.031v4.84c0 .598-.16 1.238-.48 1.879l-.078.2.016.03c-.969 1.739-3.016 3.13-5.016 3.13zm9.2-4.2c0 1-.801 1.8-1.801 1.8-.598 0-1.16-.28-1.48-.76.3-.634.456-1.267.48-1.9v-.003V5.52c.281-.2.64-.32 1-.32 1 0 1.8.8 1.8 1.8zm0 0"/>
</svg>
